imagens/icones/lupa-interrogacao.svg

<svg xmlns="http://www.w3.org/2000/svg" viewBox="0 0 24 24"><path fill="#FFF" d="M24 21.55q0-.45-.3-.8L19 16.1q-.15-.2-.35-.25-.2-.1-.45-.1h-.75q1-1.25 1.5-2.75.24746094-.71992188.35-1.45.08828125-.27421875.1-.55.1-.62128906.1-1.25 0-2-.75-3.8-.75-1.75-2.1-3.1-1.0734375-1.0734375-2.4-1.8-.34160156-.14628906-.7-.3-.49257813-.20527344-1-.35-1.34726563-.4-2.8-.4-2 0-3.8.75-1.75.75-3.1 2.1t-2.1 3.1Q0 7.75 0 9.75q0 .63515625.05 1.25.05917969.27714844.1.55.19550781 1.02929688.6 2 .75 1.75 2.1 3.1t3.1 2.1q1.8.75 3.8.75 1.41855469 0 2.8-.4.22558594-.07285156.45-.15.6484375-.21621094 1.25-.55.79023438-.38222656 1.5-.95v.75q0 .25.1.45t.25.35l4.65 4.65q.35.35.8.35.45 0 .8-.35l1.3-1.3q.35-.35.35-.8M14 5.5l.25.25q.66855469.76015625 1.05 1.65.45 1.15.45 2.35 0 .63203125-.15 1.25-.03066406.27636719-.1.55-.09296875.2765625-.2.55-.38144531.88984375-1.05 1.6-.1203125.1703125-.25.3-.66386719.62480469-1.45 1.05-.22011719.14042969-.45.25-1.15.45-2.35.45-1.2 0-2.35-.45-1.05-.5-1.9-1.3-.8-.85-1.3-1.9-.10703125-.2734375-.2-.55-.06933594-.27363281-.15-.55-.1-.61796875-.1-1.25 0-1.2.45-2.35.5-1.05 1.3-1.9.85-.8 1.9-1.3 1.15-.45 2.35-.45 1.2 0 2.35.45.22988281.10957031.45.2.78613281.47519531 1.45 1.1m-4.45 6.45q-.5 0-.9.4-.4.35-.4.9 0 .5.4.9.4.35.9.35.55 0 .9-.35.4-.4.4-.9 0-.55-.4-.9-.35-.4-.9-.4m2.4-6.1q-.45-.35-1.05-.6-.55-.2-1.15-.2-1.1 0-1.85.45-.75.4-1.35 1.25-.1.15-.05.3 0 .2.15.3l.8.6q.15.1.3.1.2-.05.3-.2.4-.45.7-.65.35-.25.85-.25.2 0 .45.05l.4.2q.45.3.45.65 0 .3-.25.55-.2.15-.7.4-.35.2-.5.3-.3.2-.5.4-.5.55-.5 1.3v.15q0 .2.1.35.15.1.35.1h1.35q.15 0 .3-.1.15-.15.15-.35v-.1q0-.25.35-.5.1-.05.35-.2.3-.2.45-.25.5-.35.8-.75Q13 8.6 13 7.9q0-.6-.3-1.15-.25-.5-.75-.9Z"/></svg>

<svg xmlns="http://www.w3.org/2000/svg" viewBox="0 0 24 24"><path fill="#FFF" d="M 24 21.55 Q 24 21.1 23.7 20.75 L 19 16.1 Q 18.85 15.9 18.65 15.85 18.45 15.75 18.2 15.75 L 17.45 15.75 Q 18.45 14.5 18.95 13 19.1974609375 12.280078125 19.3 11.55 19.38828125 11.27578125 19.4 11 19.5 10.3787109375 19.5 9.75 19.5 7.75 18.75 5.95 18 4.2 16.65 2.85 15.5765625 1.7765625 14.25 1.05 13.9083984375 0.9037109375 13.55 0.75 13.057421875 0.5447265625 12.55 0.4 11.202734375 0 9.75 0 7.75 0 5.95 0.75 4.2 1.5 2.85 2.85 1.5 4.2 0.75 5.95 0 7.75 0 9.75 0 10.38515625 0.05 11 0.1091796875 11.2771484375 0.15 11.55 0.3455078125 12.579296875 0.75 13.55 1.5 15.3 2.85 16.65 4.2 18 5.95 18.75 7.75 19.5 9.75 19.5 11.1685546875 19.5 12.55 19.1 12.7755859375 19.0271484375 13 18.95 13.6484375 18.7337890625 14.25 18.4 15.040234375 18.0177734375 15.75 17.45 L 15.75 18.2 Q 15.75 18.45 15.85 18.65 15.95 18.85 16.1 19 L 20.75 23.65 Q 21.1 24 21.55 24 22 24 22.35 23.65 L 23.65 22.35 Q 24 22 24 21.55 M 14 5.5 Q 14.1296875 5.6296875 14.25 5.75 14.9185546875 6.51015625 15.3 7.4 15.75 8.55 15.75 9.75 15.75 10.38203125 15.6 11 15.5693359375 11.2763671875 15.5 11.55 15.40703125 11.8265625 15.3 12.1 14.9185546875 12.98984375 14.25 13.7 14.1296875 13.8703125 14 14 13.3361328125 14.6248046875 12.55 15.05 12.3298828125 15.1904296875 12.1 15.3 10.95 15.75 9.75 15.75 8.55 15.75 7.4 15.3 6.35 14.8 5.5 14 4.7 13.15 4.2 12.1 4.09296875 11.8265625 4 11.55 3.9306640625 11.2763671875 3.85 11 3.75 10.38203125 3.75 9.75 3.75 8.55 4.2 7.4 4.7 6.35 5.5 5.5 6.35 4.7 7.4 4.2 8.55 3.75 9.75 3.75 10.95 3.75 12.1 4.2 12.3298828125 4.3095703125 12.55 4.4 13.3361328125 4.8751953125 14 5.5 M 9.55 11.95 Q 9.05 11.95 8.65 12.35 8.25 12.7 8.25 13.25 8.25 13.75 8.65 14.15 9.05 14.5 9.55 14.5 10.1 14.5 10.45 14.15 10.85 13.75 10.85 13.25 10.85 12.7 10.45 12.35 10.1 11.95 9.55 11.95 M 11.95 5.85 Q 11.5 5.5 10.9 5.25 10.35 5.05 9.75 5.05 8.65 5.05 7.9 5.5 7.15 5.9 6.55 6.75 6.45 6.9 6.5 7.05 6.5 7.25 6.65 7.35 L 7.45 7.95 Q 7.6 8.05 7.75 8.05 7.95 8 8.05 7.85 8.45 7.4 8.75 7.2 9.1 6.95 9.6 6.95 9.8 6.95 10.05 7 10.25 7.1 10.45 7.2 10.9 7.5 10.9 7.85 10.9 8.15 10.65 8.4 10.45 8.55 9.95 8.8 9.6 9 9.45 9.1 9.15 9.3 8.95 9.5 8.45 10.05 8.45 10.8 L 8.45 10.95 Q 8.45 11.15 8.55 11.3 8.7 11.4 8.9 11.4 L 10.25 11.4 Q 10.4 11.4 10.55 11.3 10.7 11.15 10.7 10.95 L 10.7 10.85 Q 10.7 10.6 11.05 10.35 11.15 10.3 11.4 10.15 11.7 9.95 11.85 9.9 12.35 9.55 12.65 9.15 13 8.6 13 7.9 13 7.3 12.7 6.75 12.45 6.25 11.95 5.85 Z"/></svg>
